src/Pure-Dark/16/symbolic/places/folder-music-symbolic.svg

<?xml version="1.0" encoding="UTF-8" standalone="no"?>
<svg
   width="16"
   height="16"
   version="1.1"
   id="svg1"
   sodipodi:docname="folder-music-symbolic.svg"
   inkscape:version="1.4.2 (ebf0e940d0, 2025-05-08)"
   xmlns:inkscape="http://www.inkscape.org/namespaces/inkscape"
   xmlns:sodipodi="http://sodipodi.sourceforge.net/DTD/sodipodi-0.dtd"
   xmlns="http://www.w3.org/2000/svg"
   xmlns:svg="http://www.w3.org/2000/svg">
  <defs
     id="defs1">
    <style
       id="current-color-scheme"
       type="text/css">
        .ColorScheme-Text { color:#f2f2f2; }
        .ColorScheme-NeutralText { color:#f67400; }
        .ColorScheme-PositiveText { color:#37c837; }
        .ColorScheme-NegativeText { color:#f44336; }
        .ColorScheme-Highlight { color:#3daee9; }
     </style>
  </defs>
  <sodipodi:namedview
     id="namedview1"
     pagecolor="#ffffff"
     bordercolor="#000000"
     borderopacity="0.25"
     inkscape:showpageshadow="2"
     inkscape:pageopacity="0.0"
     inkscape:pagecheckerboard="0"
     inkscape:deskcolor="#d1d1d1"
     inkscape:zoom="49.6875"
     inkscape:cx="8"
     inkscape:cy="8"
     inkscape:window-width="1920"
     inkscape:window-height="1010"
     inkscape:window-x="0"
     inkscape:window-y="0"
     inkscape:window-maximized="1"
     inkscape:current-layer="svg1" />
  <path
     id="path1"
     style="fill:currentColor"
     class="ColorScheme-Text"
     d="M 13.373047 0 L 5.9960938 1.90625 C 5.4418738 2.05461 4.9960938 2.6435669 4.9960938 3.2167969 L 4.9960938 12.306641 C 4.4340937 12.012641 3.7111906 11.893641 2.9628906 12.087891 C 1.6125906 12.438411 0.76714062 13.570687 1.0566406 14.617188 C 1.3460906 15.663687 2.6770438 16.248937 4.0273438 15.898438 C 5.1046438 15.618797 5.8464438 14.826488 5.9648438 13.992188 L 5.9960938 5.4042969 L 12.998047 3.5292969 L 12.998047 10.306641 C 12.436047 10.012641 11.715097 9.8936406 10.966797 10.087891 C 9.6164969 10.438411 8.7710469 11.572641 9.0605469 12.619141 C 9.3499969 13.665641 10.678997 14.248937 12.029297 13.898438 C 13.106597 13.618797 13.85035 12.828441 13.96875 11.994141 L 14 0.8125 C 14 0.38257 13.7343 0.06048 13.375 0 L 13.373047 0 z " />
</svg>

<svg height="16.008" width="16" xmlns="http://www.w3.org/2000/svg"><path d="M13.37 0L5.994 1.906c-.554.149-1 .74-1 1.313v9.094a2.84 2.84 0 0 0-2.03-.22c-1.35.351-2.196 1.485-1.907 2.532.29 1.047 1.619 1.632 2.969 1.281 1.076-.28 1.819-1.071 1.937-1.906l.031-8.594 7-1.875v6.781a2.84 2.84 0 0 0-2.031-.218c-1.35.35-2.196 1.484-1.906 2.531.289 1.047 1.619 1.632 2.968 1.281 1.077-.28 1.82-1.071 1.938-1.906l.03-11.188c0-.43-.265-.751-.624-.812z" fill="#f2f2f2" overflow="visible" style="marker:none" color="#bebebe"/></svg>
